theme/img/cb-logo-vert.svg

<svg width="542" height="209" viewBox="0 0 542 209" version="1.1" xmlns="http://www.w3.org/2000/svg" xmlns:xlink="http://www.w3.org/1999/xlink">
<title>Logo (vert)</title>
<desc>Created using Figma</desc>
<g id="Canvas" transform="translate(9056 851)">
<g id="Logo (vert)">
<use xlink:href="#path0_fill" transform="translate(-9056 -851)" fill="#4F4F4F"/>
</g>
</g>
<defs>
<path id="path0_fill" fill-rule="evenodd" d="M 44.0293 20.5481C 51.2051 20.5481 57.2334 23.533 62.1143 29.5244L 62.1143 4.21793C 58.6699 2.76874 55.3857 1.70868 52.2646 1.01654C 49.1426 0.346008 45.9668 0 42.7373 0C 37.0684 0 31.6494 1.05978 26.4824 3.17947C 21.3145 5.3208 16.7764 8.26263 12.8643 12.0478C 8.95215 15.833 5.83008 20.3535 3.49902 25.5663C 1.16699 30.8006 0 36.554 0 42.8266C 0 49.0992 1.18457 54.8743 3.55273 60.1735C 5.9209 65.4728 9.05957 70.0582 12.9717 73.9083C 16.8838 77.78 21.4053 80.7649 26.5361 82.8846C 31.666 85.0259 37.0312 86.0857 42.6299 86.0857C 45.3574 86.0857 48.1201 85.8045 50.9189 85.2638C 53.7178 84.723 56.7314 83.8794 59.9609 82.733L 62.1143 81.976L 62.1143 56.8858C 56.7314 62.6609 50.667 65.5377 43.9209 65.5377C 40.8359 65.5377 37.9639 64.9536 35.3096 63.8072C 32.6543 62.6608 30.3398 61.0603 28.3662 59.0488C 26.3916 57.0372 24.8496 54.6578 23.7373 51.9109C 22.624 49.1639 22.0684 46.179 22.0684 42.9346C 22.0684 39.7551 22.624 36.8135 23.7373 34.0665C 24.8496 31.3196 26.374 28.9619 28.3125 26.972C 30.25 25.0037 32.5645 23.4249 35.2559 22.2786C 37.9463 21.1322 40.8701 20.5481 44.0293 20.5481ZM 98.8848 52.0192C 97.6641 49.2722 97.0547 46.2873 97.0547 43.0429C 97.0547 39.7985 97.6641 36.8135 98.8848 34.0666C 100.105 31.3196 101.755 28.9406 103.837 26.929C 105.919 24.9174 108.341 23.3384 111.103 22.2136C 113.865 21.1105 116.791 20.5481 119.877 20.5481C 122.962 20.5481 125.888 21.1105 128.65 22.2136C 131.412 23.3384 133.854 24.9174 135.971 26.929C 138.087 28.9406 139.755 31.3196 140.976 34.0666C 142.196 36.8135 142.806 39.7985 142.806 43.0429C 142.806 46.2873 142.196 49.2722 140.976 52.0192C 139.755 54.7445 138.087 57.1453 135.971 59.1568C 133.854 61.1683 131.412 62.7474 128.65 63.8505C 125.888 64.9752 122.962 65.5377 119.877 65.5377C 116.791 65.5377 113.865 64.9752 111.103 63.8505C 108.341 62.7474 105.919 61.1683 103.837 59.1568C 101.755 57.1453 100.105 54.7445 98.8848 52.0192ZM 78.3232 26.1071C 76.0996 31.3414 74.9863 36.9866 74.9863 43.0429C 74.9863 49.0992 76.0996 54.7443 78.3232 59.9571C 80.5479 65.1914 83.6348 69.7554 87.5811 73.6487C 91.5283 77.5421 96.2471 80.5917 101.737 82.7764C 107.228 84.9825 113.273 86.0858 119.877 86.0858C 126.406 86.0858 132.435 84.9825 137.962 82.7764C 143.488 80.5917 148.242 77.5421 152.226 73.6487C 156.209 69.7554 159.313 65.1914 161.537 59.9571C 163.761 54.7443 164.875 49.0992 164.875 43.0429C 164.875 36.9866 163.761 31.3414 161.537 26.1071C 159.313 20.8943 156.209 16.3304 152.226 12.437C 148.242 8.5437 143.488 5.49399 137.962 3.28778C 132.435 1.10318 126.406 3.05176e-05 119.877 3.05176e-05C 113.273 3.05176e-05 107.228 1.10318 101.737 3.28778C 96.2471 5.49399 91.5283 8.5437 87.5811 12.437C 83.6348 16.3304 80.5479 20.8943 78.3232 26.1071ZM 199.323 65.8622L 204.167 65.8622C 207.828 65.8622 211.094 65.2781 213.963 64.1318C 216.833 62.9854 219.256 61.3849 221.23 59.3734C 223.204 57.3619 224.711 54.9608 225.751 52.1706C 226.791 49.402 227.312 46.3523 227.312 43.043C 227.312 39.7986 226.774 36.7705 225.697 33.9587C 224.621 31.1469 223.097 28.7241 221.122 26.7126C 219.148 24.701 216.726 23.1005 213.856 21.9542C 210.986 20.8078 207.756 20.2237 204.167 20.2237L 199.323 20.2237L 199.323 65.8622ZM 178.224 2.27136L 209.442 2.27136C 214.969 2.27136 220.153 3.3743 224.998 5.62378C 229.842 7.85162 234.077 10.8365 237.701 14.5351C 241.324 18.2554 244.177 22.5813 246.259 27.5129C 248.341 32.466 249.38 37.6356 249.38 43.043C 249.38 48.3855 248.358 53.5117 246.312 58.4432C 244.267 63.3964 241.432 67.7224 237.808 71.4859C 234.185 75.2278 229.95 78.2344 225.105 80.4622C 220.261 82.6901 215.04 83.8146 209.442 83.8146L 178.224 83.8146L 178.224 2.27136ZM 282.937 20.2237L 308.019 20.2237L 308.019 2.27136L 261.837 2.27136L 261.837 83.8146L 308.019 83.8146L 308.019 65.8622L 282.937 65.8622L 282.937 51.803L 306.62 51.803L 306.62 33.8505L 282.937 33.8505L 282.937 20.2237ZM 24.7598 168.768L 29.3887 168.768C 34.7002 168.768 38.502 168.076 40.7998 166.713C 43.0967 165.329 44.2441 163.144 44.2441 160.116C 44.2441 157.088 43.0967 154.882 40.7998 153.519C 38.502 152.156 34.7002 151.464 29.3887 151.464L 24.7598 151.464L 24.7598 168.768ZM 24.7598 135.675L 28.6348 135.675C 35.2383 135.675 38.5391 133.036 38.5391 127.78C 38.5391 122.524 35.2383 119.885 28.6348 119.885L 24.7598 119.885L 24.7598 135.675ZM 3.66016 103.663L 35.0938 103.663C 42.5586 103.663 48.2275 105.458 52.1025 109.07C 55.9785 112.682 57.916 117.874 57.916 124.644C 57.916 128.754 57.1797 132.149 55.709 134.853C 54.2383 137.557 51.9951 139.849 48.9814 141.731C 51.9951 142.294 54.5615 143.18 56.6777 144.37C 58.7939 145.56 60.5166 147.03 61.8447 148.761C 63.1738 150.491 64.123 152.438 64.6982 154.601C 65.2725 156.764 65.5596 159.056 65.5596 161.522C 65.5596 165.329 64.8955 168.725 63.5674 171.688C 62.2393 174.652 60.375 177.139 57.9697 179.15C 55.5645 181.162 52.6406 182.676 49.1963 183.692C 45.752 184.709 41.876 185.207 37.5703 185.207L 3.66016 185.207L 3.66016 103.663ZM 95.2539 148.003L 95.2539 103.663L 74.1543 103.663L 74.1543 150.924C 74.1543 163.62 77.0605 172.878 82.874 178.718C 88.6875 184.558 97.5859 187.477 109.571 187.477C 121.557 187.477 130.438 184.558 136.215 178.718C 141.991 172.878 144.881 163.62 144.881 150.924L 144.881 103.663L 123.889 103.663L 123.889 148.003C 123.889 150.383 123.798 152.806 123.62 155.293C 123.441 157.78 122.884 160.051 121.951 162.063C 121.019 164.074 119.6 165.718 117.699 166.973C 115.798 168.249 113.087 168.876 109.571 168.876C 106.056 168.876 103.327 168.249 101.39 166.973C 99.4521 165.718 98.0352 164.074 97.1377 162.063C 96.2402 160.051 95.7012 157.78 95.5225 155.293C 95.3438 152.806 95.2539 150.383 95.2539 148.003ZM 201.457 124.536C 199.16 122.654 196.864 121.27 194.567 120.362C 192.27 119.475 190.046 119.021 187.893 119.021C 185.165 119.021 182.941 119.669 181.219 120.967C 179.496 122.265 178.635 123.952 178.635 126.05C 178.635 127.478 179.065 128.689 179.927 129.619C 180.788 130.549 181.918 131.371 183.318 132.042C 184.717 132.734 186.295 133.339 188.054 133.837C 189.813 134.334 191.553 134.875 193.275 135.459C 200.165 137.752 205.208 140.845 208.4 144.695C 211.593 148.567 213.191 153.585 213.191 159.792C 213.191 163.967 212.491 167.752 211.092 171.148C 209.692 174.522 207.647 177.442 204.956 179.843C 202.264 182.266 198.964 184.147 195.052 185.466C 191.14 186.807 186.709 187.478 181.757 187.478C 171.494 187.478 161.985 184.406 153.229 178.285L 162.272 161.198C 165.431 164.01 168.552 166.086 171.638 167.471C 174.723 168.833 177.774 169.526 180.788 169.526C 184.233 169.526 186.799 168.725 188.485 167.146C 190.171 165.546 191.015 163.75 191.015 161.739C 191.015 160.506 190.799 159.446 190.369 158.538C 189.938 157.651 189.221 156.808 188.216 156.051C 187.21 155.294 185.901 154.601 184.287 153.952C 182.672 153.303 180.717 152.568 178.419 151.789C 175.692 150.924 173.02 149.973 170.4 148.913C 167.78 147.875 165.448 146.49 163.402 144.759C 161.357 143.029 159.706 140.845 158.45 138.206C 157.195 135.589 156.566 132.258 156.566 128.213C 156.566 124.168 157.229 120.513 158.559 117.225C 159.887 113.959 161.751 111.147 164.156 108.79C 166.561 106.454 169.502 104.637 172.983 103.339C 176.465 102.041 180.357 101.393 184.664 101.393C 188.683 101.393 192.881 101.955 197.258 103.058C 201.636 104.183 205.834 105.826 209.854 107.989L 201.457 124.536ZM 256.757 185.207L 256.757 121.616L 274.089 121.616L 274.089 103.663L 218.326 103.663L 218.326 121.616L 235.658 121.616L 235.658 185.207L 256.757 185.207ZM 329.637 121.616L 304.555 121.616L 304.555 135.242L 328.238 135.242L 328.238 153.195L 304.555 153.195L 304.555 167.254L 329.637 167.254L 329.637 185.207L 283.455 185.207L 283.455 103.663L 329.637 103.663L 329.637 121.616ZM 369.898 140.109L 365.915 140.109L 365.915 119.993L 369.898 119.993C 374.06 119.993 377.255 120.858 379.479 122.589C 381.703 124.319 382.816 126.807 382.816 130.051C 382.816 133.296 381.703 135.783 379.479 137.513C 377.255 139.244 374.06 140.109 369.898 140.109ZM 386.045 185.207L 412.312 185.207L 386.799 151.789C 392.612 150.404 397.009 147.809 399.986 143.937C 402.964 140.087 404.454 135.048 404.454 128.862C 404.454 125.401 403.898 122.156 402.785 119.128C 401.672 116.1 400.023 113.418 397.833 111.126C 395.644 108.811 392.864 106.994 389.49 105.653C 386.117 104.334 382.17 103.663 377.649 103.663L 344.815 103.663L 344.815 185.207L 365.915 185.207L 365.915 153.844L 386.045 185.207ZM 464.707 124.536C 462.41 122.654 460.114 121.27 457.817 120.362C 455.52 119.475 453.296 119.021 451.143 119.021C 448.415 119.021 446.191 119.669 444.469 120.967C 442.746 122.265 441.885 123.952 441.885 126.05C 441.885 127.478 442.315 128.689 443.177 129.619C 444.038 130.549 445.168 131.371 446.568 132.042C 447.967 132.734 449.545 133.339 451.304 133.837C 453.063 134.334 454.803 134.875 456.525 135.459C 463.415 137.752 468.458 140.845 471.65 144.695C 474.843 148.567 476.441 153.585 476.441 159.792C 476.441 163.967 475.741 167.752 474.341 171.148C 472.942 174.522 470.897 177.442 468.206 179.843C 465.514 182.266 462.214 184.147 458.302 185.466C 454.39 186.807 449.958 187.478 445.007 187.478C 434.744 187.478 425.236 184.406 416.479 178.285L 425.522 161.198C 428.681 164.01 431.802 166.086 434.888 167.471C 437.973 168.833 441.024 169.526 444.038 169.526C 447.483 169.526 450.049 168.725 451.735 167.146C 453.421 165.546 454.265 163.75 454.265 161.739C 454.265 160.506 454.049 159.446 453.619 158.538C 453.188 157.651 452.471 156.808 451.466 156.051C 450.46 155.294 449.151 154.601 447.537 153.952C 445.922 153.303 443.967 152.568 441.67 151.789C 438.942 150.924 436.27 149.973 433.65 148.913C 431.029 147.875 428.698 146.49 426.652 144.759C 424.607 143.029 422.956 140.845 421.701 138.206C 420.445 135.589 419.817 132.258 419.817 128.213C 419.817 124.168 420.48 120.513 421.808 117.225C 423.137 113.959 425.001 111.147 427.406 108.79C 429.811 106.454 432.752 104.637 436.233 103.339C 439.715 102.041 443.607 101.393 447.914 101.393C 451.933 101.393 456.131 101.955 460.508 103.058C 464.886 104.183 469.084 105.826 473.104 107.989L 464.707 124.536ZM 481.178 191.047L 542 191.047L 542 209L 481.178 209L 481.178 191.047Z"/>
</defs>
</svg>

<svg width="542" height="209" viewBox="0 0 542 209" xmlns="http://www.w3.org/2000/svg" xmlns:xlink="http://www.w3.org/1999/xlink"><title>Logo (vert)</title><desc>Created using Figma</desc><use xlink:href="#a" fill="#4F4F4F"/><defs><path id="a" fill-rule="evenodd" d="M44.03 20.548c7.175 0 13.203 2.985 18.084 8.976V4.218c-3.444-1.45-6.728-2.51-9.85-3.2C49.145.345 45.968 0 42.738 0c-5.67 0-11.088 1.06-16.255 3.18-5.168 2.14-9.706 5.083-13.618 8.868C8.952 15.833 5.83 20.354 3.5 25.566 1.166 30.8 0 36.554 0 42.826 0 49.1 1.185 54.875 3.553 60.174c2.368 5.3 5.507 9.885 9.42 13.735 3.91 3.872 8.432 6.857 13.563 8.977 5.13 2.14 10.495 3.2 16.094 3.2 2.727 0 5.49-.28 8.29-.82 2.798-.542 5.81-1.386 9.04-2.532l2.154-.757v-25.09c-5.383 5.775-11.447 8.652-18.193 8.652-3.084 0-5.956-.584-8.61-1.73-2.656-1.147-4.97-2.748-6.944-4.76-1.974-2.01-3.516-4.39-4.63-7.137-1.112-2.746-1.668-5.73-1.668-8.975 0-3.18.556-6.122 1.67-8.87 1.112-2.745 2.636-5.103 4.575-7.093 1.937-1.968 4.252-3.547 6.943-4.693 2.69-1.148 5.614-1.732 8.773-1.732zm54.855 31.47c-1.22-2.746-1.83-5.73-1.83-8.975 0-3.245.61-6.23 1.83-8.976 1.22-2.747 2.87-5.126 4.952-7.138 2.082-2.013 4.504-3.592 7.266-4.716 2.762-1.104 5.688-1.666 8.774-1.666 3.085 0 6.01.563 8.773 1.666 2.762 1.124 5.204 2.703 7.32 4.715 2.117 2.01 3.785 4.39 5.006 7.137 1.22 2.746 1.83 5.73 1.83 8.976 0 3.244-.61 6.23-1.83 8.976-1.22 2.724-2.89 5.125-5.005 7.137-2.116 2.01-4.558 3.59-7.32 4.694-2.762 1.125-5.688 1.688-8.773 1.688-3.086 0-6.012-.563-8.774-1.688-2.762-1.103-5.184-2.682-7.266-4.693-2.082-2.012-3.732-4.412-4.952-7.138zM78.323 26.11c-2.223 5.233-3.337 10.88-3.337 16.935 0 6.056 1.114 11.7 3.337 16.914 2.225 5.234 5.312 9.798 9.258 13.692 3.948 3.892 8.667 6.942 14.157 9.126 5.49 2.207 11.536 3.31 18.14 3.31 6.53 0 12.558-1.103 18.085-3.31 5.526-2.184 10.28-5.234 14.264-9.127 3.983-3.895 7.087-8.46 9.31-13.693 2.225-5.213 3.34-10.858 3.34-16.914 0-6.056-1.115-11.702-3.34-16.936-2.223-5.213-5.327-9.777-9.31-13.67-3.984-3.893-8.738-6.943-14.264-9.15C132.435 1.104 126.406 0 119.877 0c-6.604 0-12.65 1.103-18.14 3.288-5.49 2.206-10.21 5.256-14.156 9.15-3.945 3.892-7.032 8.456-9.257 13.67zm121 39.754h4.844c3.66 0 6.927-.584 9.796-1.73 2.87-1.147 5.293-2.747 7.267-4.76 1.974-2.01 3.48-4.41 4.52-7.2 1.04-2.77 1.562-5.82 1.562-9.13 0-3.243-.538-6.272-1.615-9.083-1.076-2.813-2.6-5.236-4.575-7.247-1.974-2.012-4.396-3.613-7.266-4.76-2.87-1.145-6.1-1.73-9.69-1.73h-4.843v45.64zm-21.1-63.59h31.22c5.526 0 10.71 1.102 15.555 3.352 4.844 2.228 9.08 5.212 12.703 8.91 3.624 3.72 6.477 8.047 8.56 12.98 2.08 4.952 3.12 10.122 3.12 15.53 0 5.342-1.022 10.468-3.068 15.4-2.045 4.952-4.88 9.278-8.504 13.042-3.623 3.742-7.858 6.748-12.703 8.976-4.844 2.228-10.065 3.353-15.663 3.353h-31.218V2.27zm104.714 17.952h25.082V2.27h-46.183v81.545h46.182V65.862h-25.083v-14.06h23.683V33.85h-23.683V20.224zM24.76 168.768h4.63c5.31 0 9.112-.692 11.41-2.055 2.297-1.384 3.444-3.57 3.444-6.597 0-3.028-1.147-5.234-3.444-6.597-2.298-1.364-6.1-2.056-11.41-2.056h-4.63v17.304zm0-33.093h3.875c6.603 0 9.904-2.64 9.904-7.895 0-5.256-3.302-7.895-9.905-7.895H24.76v15.79zm-21.1-32.012h31.434c7.465 0 13.133 1.795 17.008 5.407 3.877 3.612 5.814 8.804 5.814 15.574 0 4.11-.736 7.505-2.207 10.21-1.472 2.703-3.715 4.995-6.73 6.877 3.015.564 5.582 1.45 7.698 2.64 2.116 1.19 3.84 2.66 5.167 4.39 1.33 1.73 2.278 3.678 2.853 5.84.575 2.164.862 4.456.862 6.922 0 3.807-.665 7.203-1.993 10.166-1.328 2.964-3.192 5.45-5.597 7.462-2.405 2.012-5.33 3.526-8.774 4.542-3.444 1.017-7.32 1.515-11.626 1.515H3.66v-81.544zm91.594 44.34v-44.34h-21.1v47.26c0 12.697 2.907 21.955 8.72 27.795 5.814 5.84 14.712 8.76 26.697 8.76 11.987 0 20.868-2.92 26.645-8.76 5.776-5.84 8.666-15.098 8.666-27.794v-47.26h-20.99v44.34c0 2.38-.092 4.802-.27 7.29-.18 2.486-.736 4.757-1.67 6.77-.93 2.01-2.35 3.654-4.25 4.91-1.902 1.275-4.613 1.902-8.13 1.902-3.514 0-6.243-.627-8.18-1.903-1.938-1.255-3.355-2.9-4.252-4.91-.898-2.012-1.437-4.283-1.616-6.77-.178-2.487-.268-4.91-.268-7.29zm106.203-23.467c-2.297-1.882-4.593-3.266-6.89-4.174-2.297-.887-4.52-1.34-6.674-1.34-2.728 0-4.952.647-6.674 1.945-1.724 1.298-2.585 2.985-2.585 5.083 0 1.428.43 2.64 1.292 3.57.86.93 1.99 1.75 3.39 2.422 1.4.692 2.978 1.297 4.737 1.795 1.76.497 3.5 1.038 5.22 1.622 6.89 2.292 11.934 5.385 15.126 9.235 3.193 3.872 4.79 8.89 4.79 15.097 0 4.175-.7 7.96-2.098 11.356-1.4 3.374-3.445 6.294-6.136 8.695-2.692 2.423-5.992 4.304-9.904 5.623-3.912 1.34-8.343 2.012-13.295 2.012-10.263 0-19.772-3.072-28.528-9.193l9.042-17.087c3.16 2.812 6.28 4.888 9.366 6.273 3.085 1.363 6.136 2.056 9.15 2.056 3.445 0 6.01-.8 7.697-2.38 1.686-1.6 2.53-3.396 2.53-5.407 0-1.234-.216-2.294-.646-3.202-.432-.887-1.15-1.73-2.154-2.487-1.006-.756-2.315-1.45-3.93-2.098-1.614-.65-3.57-1.384-5.867-2.163-2.728-.866-5.4-1.817-8.02-2.877-2.62-1.038-4.952-2.423-6.998-4.154-2.045-1.73-3.696-3.915-4.952-6.554-1.255-2.617-1.884-5.948-1.884-9.993s.663-7.7 1.993-10.988c1.327-3.266 3.19-6.078 5.596-8.435 2.405-2.336 5.346-4.153 8.827-5.45 3.482-1.3 7.374-1.947 11.68-1.947 4.02 0 8.218.562 12.595 1.665 4.378 1.125 8.576 2.768 12.596 4.93l-8.397 16.548zm55.3 60.67v-63.59h17.332v-17.953h-55.764v17.953h17.332v63.59h21.1zm72.88-63.59h-25.082v13.626h23.683v17.953h-23.683v14.06h25.082v17.952h-46.182v-81.544h46.182v17.953zm40.26 18.493h-3.982v-20.117h3.983c4.162 0 7.357.865 9.58 2.596 2.225 1.73 3.338 4.217 3.338 7.46 0 3.246-1.113 5.733-3.337 7.463-2.225 1.73-5.42 2.596-9.582 2.596zm16.148 45.097h26.267L386.8 151.79c5.812-1.386 10.21-3.98 13.186-7.853 2.978-3.85 4.468-8.89 4.468-15.075 0-3.46-.556-6.706-1.67-9.734-1.112-3.028-2.76-5.71-4.95-8.002-2.19-2.315-4.97-4.132-8.344-5.473-3.373-1.32-7.32-1.99-11.84-1.99h-32.835v81.544h21.1v-31.363l20.13 31.363zm78.662-60.67c-2.297-1.883-4.593-3.267-6.89-4.175-2.297-.887-4.52-1.34-6.674-1.34-2.728 0-4.952.647-6.674 1.945-1.724 1.298-2.585 2.985-2.585 5.083 0 1.428.43 2.64 1.292 3.57.86.93 1.99 1.75 3.39 2.422 1.4.692 2.978 1.297 4.737 1.795 1.76.497 3.5 1.038 5.22 1.622 6.89 2.292 11.934 5.385 15.126 9.235 3.193 3.872 4.79 8.89 4.79 15.097 0 4.175-.7 7.96-2.1 11.356-1.398 3.374-3.443 6.294-6.134 8.695-2.692 2.423-5.992 4.304-9.904 5.623-3.912 1.34-8.344 2.012-13.295 2.012-10.263 0-19.77-3.072-28.528-9.193l9.042-17.087c3.16 2.812 6.28 4.888 9.366 6.273 3.085 1.363 6.136 2.056 9.15 2.056 3.445 0 6.01-.8 7.697-2.38 1.686-1.6 2.53-3.396 2.53-5.407 0-1.234-.216-2.294-.646-3.202-.432-.887-1.15-1.73-2.154-2.487-1.006-.756-2.315-1.45-3.93-2.098-1.614-.65-3.57-1.384-5.866-2.163-2.728-.866-5.4-1.817-8.02-2.877-2.62-1.038-4.952-2.423-6.998-4.154-2.045-1.73-3.696-3.915-4.95-6.554-1.257-2.617-1.885-5.948-1.885-9.993s.663-7.7 1.99-10.988c1.33-3.266 3.194-6.078 5.6-8.435 2.404-2.336 5.345-4.153 8.826-5.45 3.482-1.3 7.374-1.947 11.68-1.947 4.02 0 8.218.562 12.595 1.665 4.378 1.125 8.576 2.768 12.596 4.93l-8.397 16.548zm16.47 66.51H542V209h-60.822v-17.953z"/></defs></svg>
